X:382
T:Kilfinane Jig, The
T:When You Go Home
R:jig
H:See also #395, Humours of Ayle House, The Shoemaker's Fancy, #509
H:Related to "Come with me now" and "The humors of Ayle House" in O'Neill's
Z:id:hn-jig-382
M:6/8
L:1/8
K:Dmix
FDE F2d | cAA BAG | FDE F2d | cAF GAG |
FDE F2d | cAB cde | faf ded |1 cAF GAG :|2 cAF G2A ||
|: cAA fed | cAG A2B | cAA fed | cAF GAB |
cAA fed | cAB cde | f/g/af ded |1 cAF G2A :|2 cAF GAG ||
P:variations
|: FDE F2d | cAA BAG | FDE FdB | cAF ~G3 |
FDE F2d | cAB cde | fef ded |1 cAF GAG :|2 cAF G2e ||
|: cAA fed | cAA A2B | cAA fed | cAF G2A |
cAA fed | cAB cde | ~f3 ded |1 cAF G2A :|2 cAF ~G3 ||

